!!!OTL: ES WAR EIN STOLZES MUELLERWEIB
!!!ARE: Europa, Mitteleuropa, Deutschland, Westerwald
!!!SCT: Z0172
!!!YEM: Copyright 1995, estate of Helmut Schaffrath.
**kern
*ICvox
*Ivox
*M2/4
*k[f#]
*G:
{8d
=1
8d
8e
8f#
8g
=2
8a
8b
16cc
16b}
{8a
=3
8g
8g
16f#
16g
16a
16f#
=4
4g
8r}
{16f#
16g
=5
8a
8a
16a
16b
16cc#
16dd
=6
4a
16a
16g}
{16f#
16g
=7
8a
16a
16b
16cc
16b
8a
=8
4g
16g
16f#}
{16e
16f#
=9
8d
8e
8f#
8g
=10
8a
8b
8cc}
{16b
16a
=11
8g
8g
16f#
16g
16a
16f#
=12
4g
8r}
==
!!!AGN: Erzaehlung, lustige Romanze
!!!ONB: ESAC (Essen Associative Code) Database: ZUCCAL
!!!AMT: simple duple
!!!AIN: vox
!!!EED: Helmut Schaffrath
!!!EEV: 1.0
*-
